X:1
T:Title
L:1/8
M:4/4
K:Eb
V:1 treble nm="Grand Piano"
V:1
 z4 z2[Q:1/4=100] FG | A2 A2 A2 AG | BAGA GF=EF | G2 G2 G2 GF | AGFG F=EFG | A2 A2 A2 c2 | %6
 BAGA GF=EF | G2 G2 G2 GF | AGFG F2 FF | c2 c2 c2 c2 | cBAB A2 GG | c2 c2 c2 c2 | cBAB A2 GA | %13
 B2 BB B2 B2 | =B>_B AB A2 G2 | c2 B2 A2 G2 | AGFG F=E z2 |[M:1/4] FG |[M:4/4] A2 A2 A2 AG | %19
 BAGA GF=EF | G2 G2 G2 GF | AGFG F=EFG | A2 A2 A2 c2 | BAGA GF=EF | G2 G2 G2 GF | %25
[M:8/4] AGFG F2 FF z8 |] %26

